vsi/empty-window_light.svg

<svg viewBox="0 0 16 16" fill="none" xmlns="http://www.w3.org/2000/svg" height="1em" width="1em">
  <g clip-path="url(#a)">
    <path fill-rule="evenodd" clip-rule="evenodd" d="M4.00024 4H7.00024V5H4.00024V8H3.00024V5H0.000244141V4H3.00024V1H4.00024V4ZM1.00024 14.5V9H2.00024V14H14.0002V7H8.00024V6H14.0002V4H8.00024V3H14.0002H14.5002L15.0002 3.5V14.5L14.5002 15H1.50024L1.00024 14.5Z" fill="#424242"/>
  </g>
  <defs>
    <clipPath id="a">
      <rect width="16" height="16" fill="white" transform="translate(0.000244141)"/>
    </clipPath>
  </defs>
</svg>

<svg viewBox="0 0 16 16" fill="none" xmlns="http://www.w3.org/2000/svg" height="1em" width="1em">
  <g clip-path="url(#a)">
    <path fill-rule="evenodd" clip-rule="evenodd" d="M4 4h3v1H4v3H3V5H0V4h3V1h1v3ZM1 14.5V9h1v5h12V7H8V6h6V4H8V3h6.5l.5.5v11l-.5.5h-13l-.5-.5Z" fill="#424242"/>
  </g>
  <defs>
    <clipPath id="a">
      <path fill="#fff" d="M0 0h16v16H0z"/>
    </clipPath>
  </defs>
</svg>
